X:1
T:Title
%%score [ ( 1 2 ) ( 3 4 ) ]
L:1/8
Q:1/4=240
M:4/4
K:D
V:1 treble nm="Midi_74"
V:2 treble 
V:3 bass nm="Midi_74"
V:4 bass 
V:1
"^J. Turle\n(1802-82)" F8 | G4 F4 | E8 || B8 | E4 A4 | A4 ^G4 | A8 || ^A8 | B4 c4 | d8 || G8 | %11
 G4 F4 | E4 E4 | D8 |] %14
V:2
 D8 | E4 D4 | B,8 || (E6 D2) | C4 A,4 | F4 (E2 D2) | C8 || F8 | F4 E4 | D8 || E8 | E4 D4 | D4 C4 | %13
 D8 |] %14
V:3
 A,8 | A,4 A,4 | B,8 || B,8 | C4 C4 | B,4 B,4 | A,8 || C8 | (F,2 ^G,2) ^A,4 | B,8 || B,8 | %11
 A,4 A,4 | B,4 A,4 | F,8 |] %14
V:4
 D,8 | C,4 D,4 | G,8 || ^G,8 | A,4 F,4 | D,4 E,4 | A,,8 || (F,6 E,2) | D,4 C,4 | B,,8 || E,8 | %11
 C,4 D,4 | G,,4 A,,4 | D,8 |] %14

